static/logo/dmm.svg

<?xml version="1.0" encoding="UTF-8"?>
<svg width="109.35px" height="54.834px" viewBox="0 0 109.35 54.834" xmlns="http://www.w3.org/2000/svg"><path d="m102.98 11.973h-11.337l-4.219 15.076-4.676-15.076h-10.5l-3.172 16.461-2.943-16.461h-11.335l-4.222 15.076-4.678-15.076h-10.5l-2.366 12.344c-1.779-7.864-8.97-12.344-19.8-12.344h-13.234v32.054h16.037c5.15 0 10.915-1.618 14.356-5.94l-1.139 5.94h11.213l2.312-13.453 3.928 13.453h8.768l3.345-13.38 2.037 13.38h16.459l2.311-13.453 3.925 13.453h8.77l3.343-13.38 2.035 13.38h11.047l-5.765-32.054zm-88.853 20.934v-9.99c2.425 0 6.111 0.109 6.111 4.974 1e-3 4.973-3.545 5.016-6.111 5.016z" fill-rule="evenodd"/></svg>

<?xml version="1.0" encoding="utf-8"?>
<svg viewBox="0 0 109.351 54.834" width="109.351px" height="54.834px"
    xmlns="http://www.w3.org/2000/svg">
    <path
        d="M 102.982 11.973 L 91.645 11.973 L 87.426 27.049 L 82.75 11.973 L 72.25 11.973 L 69.078 28.434 L 66.135 11.973 L 54.8 11.973 L 50.578 27.049 L 45.9 11.973 L 35.4 11.973 L 33.034 24.317 C 31.255 16.453 24.064 11.973 13.234 11.973 L 0 11.973 L 0 44.027 L 16.037 44.027 C 21.187 44.027 26.952 42.409 30.393 38.087 L 29.254 44.027 L 40.467 44.027 L 42.779 30.574 L 46.707 44.027 L 55.475 44.027 L 58.82 30.647 L 60.857 44.027 L 77.316 44.027 L 79.627 30.574 L 83.552 44.027 L 92.322 44.027 L 95.665 30.647 L 97.7 44.027 L 108.747 44.027 L 102.982 11.973 Z M 14.129 32.907 L 14.129 22.917 C 16.554 22.917 20.24 23.026 20.24 27.891 C 20.241 32.864 16.695 32.907 14.129 32.907 Z"
        fill-rule="evenodd" />
</svg>
